icons/ai-border.svg

<svg xmlns="http://www.w3.org/2000/svg" width="512" height="512" fill="none"><g clip-path="url(#a)"><path fill="#000" d="M346.844 354V227c0-13.81 11.185-25 24.989-25s24.989 11.19 24.989 25v127c0 13.81-11.185 25-24.989 25s-24.989-11.19-24.989-25Zm-107.951 1v-49h-73.967v49c0 13.81-11.185 25-24.989 25s-24.989-11.19-24.989-25V219.5c0-47.97 39.013-87 86.961-87 47.949 0 86.961 39.03 86.961 87V355c0 13.81-11.185 25-24.988 25-13.804 0-24.989-11.19-24.989-25Zm0-99v-36.5c0-20.4-16.593-37-36.984-37-20.39 0-36.983 16.6-36.983 37V256h73.967ZM367.295 93.95l28.947 12.77a17.757 17.757 0 0 1 9.086 9.09l12.764 28.96c6.227 14.14 26.278 14.14 32.506 0l12.764-28.96a17.757 17.757 0 0 1 9.086-9.09l28.947-12.77c14.133-6.23 14.133-26.29 0-32.52l-28.947-12.77a17.757 17.757 0 0 1-9.086-9.09l-12.764-28.96c-6.228-14.14-26.279-14.14-32.506 0l-12.764 28.96a17.757 17.757 0 0 1-9.086 9.09l-28.947 12.77c-14.134 6.23-14.134 26.29 0 32.52ZM486.781 203c-13.803 0-24.988 11.19-24.988 25v199c0 19.3-15.693 35-34.985 35H84.962c-9.356 0-18.142-3.65-24.749-10.26-6.607-6.62-10.245-15.42-10.235-24.77l.34-342C50.337 65.69 66.03 50 85.301 50h196.571c13.804 0 24.989-11.19 24.989-25S295.677 0 281.873 0H85.302C38.502 0 .39 38.09.34 84.92l-.34 342c-.02 22.72 8.806 44.08 24.859 60.16 16.053 16.08 37.393 24.93 60.103 24.93h341.846c46.849 0 84.962-38.13 84.962-85v-199c0-13.81-11.185-25-24.989-25V203Z"/></g><defs><clipPath id="a"><path fill="#fff" d="M0 0h512v512H0z"/></clipPath></defs></svg>

<svg width="512" height="512" viewBox="0 0 512 512" fill="none" xmlns="http://www.w3.org/2000/svg">
<g clip-path="url(#clip0_493_6985)">
<path d="M346.844 354V227C346.844 213.19 358.029 202 371.833 202C385.637 202 396.822 213.19 396.822 227V354C396.822 367.81 385.637 379 371.833 379C358.029 379 346.844 367.81 346.844 354ZM238.893 355V306H164.926V355C164.926 368.81 153.741 380 139.937 380C126.133 380 114.948 368.81 114.948 355V219.5C114.948 171.53 153.961 132.5 201.909 132.5C249.858 132.5 288.87 171.53 288.87 219.5V355C288.87 368.81 277.685 380 263.882 380C250.078 380 238.893 368.81 238.893 355ZM238.893 256V219.5C238.893 199.1 222.3 182.5 201.909 182.5C181.519 182.5 164.926 199.1 164.926 219.5V256H238.893ZM367.295 93.95L396.242 106.72C400.3 108.51 403.539 111.75 405.328 115.81L418.092 144.77C424.319 158.91 444.37 158.91 450.598 144.77L463.362 115.81C465.151 111.75 468.39 108.51 472.448 106.72L501.395 93.95C515.528 87.72 515.528 67.66 501.395 61.43L472.448 48.66C468.39 46.87 465.151 43.63 463.362 39.57L450.598 10.61C444.37 -3.53 424.319 -3.53 418.092 10.61L405.328 39.57C403.539 43.63 400.3 46.87 396.242 48.66L367.295 61.43C353.161 67.66 353.161 87.72 367.295 93.95ZM486.781 203C472.978 203 461.793 214.19 461.793 228V427C461.793 446.3 446.1 462 426.808 462H84.9619C75.6061 462 66.82 458.35 60.213 451.74C53.606 445.12 49.9676 436.32 49.9776 426.97L50.3174 84.97C50.3374 65.69 66.0304 50 85.3017 50H281.873C295.677 50 306.862 38.81 306.862 25C306.862 11.19 295.677 0 281.873 0H85.3017C38.5027 0 0.389859 38.09 0.339881 84.92L3.38854e-05 426.92C-0.0199571 449.64 8.80608 471 24.8589 487.08C40.9117 503.16 62.2521 512.01 84.9619 512.01H426.808C473.657 512.01 511.77 473.88 511.77 427.01V228.01C511.77 214.2 500.585 203.01 486.781 203.01V203Z" fill="black"/>
</g>
<defs>
<clipPath id="clip0_493_6985">
<rect width="512" height="512" fill="white"/>
</clipPath>
</defs>
</svg>
